docs/assets/images/svg/ficha-icon-1.svg

<svg width="64" height="64" viewBox="0 0 64 64" fill="none" xmlns="http://www.w3.org/2000/svg">
<path d="M55.0404 9.40029C54.2669 8.4916 53.1389 7.97065 51.9457 7.97065H48.0292V6.74674C48.0292 5.23222 46.7957 4 45.2798 4H18.7204C17.2043 4 15.9711 5.23222 15.9711 6.74663V7.97054H12.0542C10.861 7.97054 9.73286 8.4916 8.95949 9.40018C8.19399 10.2994 7.86314 11.4804 8.05199 12.6403C9.08112 18.9622 13.0635 24.5472 18.7155 27.6107C19.2319 28.8511 19.8168 30.0261 20.4681 31.1207C22.5485 34.618 25.1347 37.0349 27.9815 38.2038C28.27 41.118 26.329 43.8788 23.4058 44.5366C23.3996 44.5381 23.3952 44.5403 23.3891 44.5417C22.8185 44.6778 22.3939 45.1893 22.3939 45.8009V51.7469H19.9868C17.8407 51.7469 16.0948 53.4911 16.0948 55.6351V58.7039C16.0948 59.4198 16.6756 60 17.3922 60H46.7318C47.4484 60 48.0292 59.4198 48.0292 58.7039V55.6351C48.0292 53.4911 46.2833 51.7469 44.1372 51.7469H41.73V45.801C41.73 45.1882 41.3038 44.676 40.7317 44.541C40.7263 44.5397 40.7212 44.538 40.7158 44.5366C37.7706 43.8744 35.8259 41.0859 36.1448 38.1498C38.9418 36.962 41.4828 34.5665 43.5325 31.1209C44.1838 30.0262 44.7685 28.8511 45.285 27.6105C50.9367 24.5469 54.9189 18.962 55.948 12.6403C56.1369 11.4804 55.806 10.2995 55.0404 9.40029ZM10.613 12.2241C10.5455 11.8099 10.6602 11.4034 10.9358 11.0794C11.2156 10.7509 11.6231 10.5625 12.0541 10.5625H15.971V12.9471C15.971 16.6862 16.4487 20.3081 17.354 23.6203C13.7963 20.8116 11.3467 16.7316 10.613 12.2241ZM44.1372 54.3392C44.8526 54.3392 45.4346 54.9206 45.4346 55.6353V57.408H18.6894V55.6353C18.6894 54.9206 19.2715 54.3392 19.9868 54.3392H44.1372ZM39.1352 47.0971V51.747H24.9888V47.0971H39.1352ZM28.3912 44.505C28.7118 44.1524 29.005 43.7701 29.2672 43.361C30.1318 42.0114 30.5856 40.4782 30.606 38.9122C31.0668 38.9749 31.5319 39.0085 32.0009 39.0085C32.5112 39.0085 33.0168 38.9693 33.5174 38.8952C33.547 40.9994 34.3668 42.9913 35.7453 44.5049H28.3912V44.505ZM45.4344 12.9472C45.4344 19.3324 43.9667 25.3164 41.3018 29.7964C38.7627 34.0653 35.4594 36.4163 32.0007 36.4163C28.5414 36.4163 25.2379 34.0654 22.6984 29.7966C20.0334 25.3165 18.5657 19.3325 18.5657 12.9474V6.74663C18.5657 6.66132 18.6351 6.59208 18.7203 6.59208H45.2796C45.365 6.59208 45.4344 6.66143 45.4344 6.74663V12.9472ZM53.387 12.2241C52.6533 16.7313 50.2039 20.8112 46.6463 23.6201C47.5515 20.3078 48.0292 16.6862 48.0292 12.9472V10.5626H51.9457C52.3768 10.5626 52.7843 10.7511 53.0639 11.0795C53.3396 11.4034 53.4543 11.8099 53.387 12.2241Z" fill="#926A31"/>
<path d="M39.8762 17.3064C39.7235 16.8374 39.3175 16.4955 38.8289 16.4244L34.9141 15.8561L33.1634 12.3121C32.9447 11.8698 32.4938 11.5897 32 11.5897C31.5061 11.5897 31.0552 11.8698 30.8366 12.3121L29.0859 15.8561L25.1711 16.4244C24.6824 16.4952 24.2764 16.8373 24.1238 17.3065C23.9713 17.7758 24.0985 18.2907 24.4521 18.6352L27.285 21.3937L26.6161 25.2889C26.5326 25.7752 26.7326 26.2665 27.1322 26.5566C27.5316 26.8465 28.0614 26.8847 28.4984 26.6552L32 24.8163L35.5014 26.6552C35.6913 26.7549 35.8985 26.804 36.1049 26.804C36.3738 26.804 36.6416 26.7205 36.8676 26.5564C37.2672 26.2664 37.4672 25.7751 37.3837 25.2888L36.7148 21.3936L39.5477 18.6351C39.9015 18.2907 40.0287 17.7757 39.8762 17.3064ZM34.4156 20.0131C34.1098 20.3108 33.9702 20.7398 34.0425 21.1603L34.3821 23.1389L32.6036 22.2047C32.4147 22.1054 32.2073 22.056 31.9999 22.056C31.7925 22.056 31.5852 22.1056 31.3962 22.2047L29.6177 23.1389L29.9573 21.1603C30.0296 20.7399 29.89 20.3109 29.5842 20.0131L28.1455 18.612L30.1339 18.3232C30.5564 18.262 30.9217 17.9967 31.1107 17.6143L32 15.8142L32.8892 17.6143C33.0783 17.9967 33.4434 18.2619 33.866 18.3232L35.8544 18.612L34.4156 20.0131Z" fill="#926A31"/>
</svg>

<svg width="64" height="64" fill="none" xmlns="http://www.w3.org/2000/svg"><path d="M55.04 9.4a4.058 4.058 0 00-3.094-1.43h-3.917V6.748A2.751 2.751 0 0045.28 4H18.72a2.751 2.751 0 00-2.749 2.747V7.97h-3.917A4.058 4.058 0 008.96 9.4a4 4 0 00-.907 3.24c1.03 6.321 5.011 11.906 10.663 14.97a27.64 27.64 0 001.753 3.51c2.08 3.497 4.667 5.914 7.514 7.083.288 2.914-1.653 5.675-4.576 6.333l-.017.005c-.57.136-.995.647-.995 1.259v5.946h-2.407a3.894 3.894 0 00-3.892 3.888v3.069c0 .716.58 1.296 1.297 1.296h29.34c.716 0 1.297-.58 1.297-1.296v-3.069a3.894 3.894 0 00-3.892-3.888H41.73V45.8c0-.613-.426-1.125-.998-1.26l-.016-.004c-2.945-.663-4.89-3.451-4.571-6.387 2.797-1.188 5.338-3.584 7.387-7.03a27.652 27.652 0 001.753-3.51c5.652-3.063 9.634-8.648 10.663-14.97a4 4 0 00-.908-3.24zm-44.427 2.824c-.067-.414.047-.82.323-1.145.28-.328.687-.517 1.118-.517h3.917v2.385c0 3.74.478 7.361 1.383 10.673-3.558-2.808-6.007-6.888-6.741-11.396zM44.137 54.34c.716 0 1.298.582 1.298 1.296v1.773H18.689v-1.773c0-.714.582-1.296 1.298-1.296h24.15zm-5.002-7.242v4.65H24.99v-4.65h14.146zm-10.744-2.592c.32-.353.614-.735.876-1.144a8.426 8.426 0 001.339-4.449 10.28 10.28 0 002.911-.017 8.528 8.528 0 002.228 5.61h-7.354zm17.043-31.558c0 6.385-1.467 12.37-4.132 16.85-2.54 4.268-5.843 6.62-9.301 6.62-3.46 0-6.763-2.352-9.303-6.62-2.665-4.48-4.132-10.465-4.132-16.85v-6.2c0-.086.07-.155.154-.155h26.56c.085 0 .154.07.154.155v6.2zm7.953-.723c-.734 4.507-3.183 8.587-6.74 11.396.904-3.312 1.382-6.934 1.382-10.673v-2.384h3.917c.43 0 .838.188 1.118.516.276.324.39.73.323 1.145z" fill="#926A31"/><path d="M39.876 17.306a1.298 1.298 0 00-1.047-.882l-3.915-.568-1.75-3.544a1.298 1.298 0 00-2.327 0l-1.751 3.544-3.915.568a1.297 1.297 0 00-.719 2.211l2.833 2.759-.669 3.895a1.295 1.295 0 001.882 1.366L32 24.816l3.501 1.84a1.297 1.297 0 001.883-1.367l-.67-3.895 2.834-2.759c.353-.344.48-.86.328-1.329zm-5.46 2.707a1.295 1.295 0 00-.373 1.147l.34 1.979-1.78-.934a1.297 1.297 0 00-1.207 0l-1.778.934.34-1.979c.072-.42-.068-.85-.374-1.147l-1.439-1.401 1.989-.289c.422-.061.788-.326.977-.709l.889-1.8.89 1.8c.188.383.553.648.976.71l1.988.288-1.438 1.401z" fill="#926A31"/></svg>
